src/img/facebook.svg

<svg height="73" viewBox="0 0 72 73" width="72" xmlns="http://www.w3.org/2000/svg"><g fill="none" fill-rule="evenodd" transform="translate(.4937 .89781)"><path d="m35.7223752 71.3974397c-19.6977228 0-35.7223752-16.0142437-35.7223752-35.6982676 0-19.6849284 16.0246524-35.6991721 35.7223752-35.6991721s35.7223752 16.0142437 35.7223752 35.6991721c0 19.6840239-16.0246524 35.6982676-35.7223752 35.6982676zm0-68.68377436c-18.2006162 0-33.00694608 14.79671256-33.00694608 32.98550676 0 18.1878897 14.80632988 32.9846023 33.00694608 32.9846023 18.1997111 0 33.0069461-14.7967126 33.0069461-32.9846023 0-18.1887942-14.807235-32.98550676-33.0069461-32.98550676z" fill="#689cb8"/><path d="m51.4303098 49.5642752c0 1.0121971-.8209648 1.8326286-1.8338198 1.8326286h-8.4676131v-12.8591555h4.3193425l.6471773-5.0121399h-4.9665198v-3.1994114c0-1.4509064.4036937-2.4395852 2.4855227-2.4395852l2.6556897-.0018091v-4.4820706c-.4589075-.0615097-2.0356667-.197193-3.8694865-.197193-3.828755 0-6.4500493 2.3355613-6.4500493 6.6240571v3.6960122h-4.3302043v5.0121399h4.3302043v12.8591555h-15.91513c-1.0128551 0-1.8338198-.8204315-1.8338198-1.8326286v-29.5418655c0-1.0121972.8209647-1.8326287 1.8338198-1.8326287h29.5610665c1.012855 0 1.8338198.8204315 1.8338198 1.8326287z" fill="#699db7"/></g></svg>

<?xml version="1.0" encoding="UTF-8"?>
<svg width="72px" height="73px" viewBox="0 0 72 73" version="1.1" xmlns="http://www.w3.org/2000/svg" xmlns:xlink="http://www.w3.org/1999/xlink">
    <!-- Generator: Sketch 49.2 (51160) - http://www.bohemiancoding.com/sketch -->
    <title>facebook</title>
    <desc>Created with Sketch.</desc>
    <defs></defs>
    <g id="Page-1" stroke="none" stroke-width="1" fill="none" fill-rule="evenodd">
        <g id="1-HOMEPAGE" transform="translate(-1637.000000, -5716.000000)">
            <g id="Page-1" transform="translate(0.000000, 5049.000000)">
                <g id="Group-14">
                    <g id="footer" transform="translate(725.000000, 665.000000)">
                        <g id="facebook" transform="translate(912.493700, 2.897810)">
                            <path d="M35.7223752,71.3974397 C16.0246524,71.3974397 0,55.383196 0,35.6991721 C0,16.0142437 16.0246524,0 35.7223752,0 C55.420098,0 71.4447504,16.0142437 71.4447504,35.6991721 C71.4447504,55.383196 55.420098,71.3974397 35.7223752,71.3974397 L35.7223752,71.3974397 Z M35.7223752,2.71366534 C17.521759,2.71366534 2.71542912,17.5103779 2.71542912,35.6991721 C2.71542912,53.8870618 17.521759,68.6837744 35.7223752,68.6837744 C53.9220863,68.6837744 68.7293213,53.8870618 68.7293213,35.6991721 C68.7293213,17.5103779 53.9220863,2.71366534 35.7223752,2.71366534 L35.7223752,2.71366534 Z" id="Facebook-Circle" fill="#689CB8"></path>
                            <path d="M51.4303098,49.5642752 C51.4303098,50.5764723 50.609345,51.3969038 49.59649,51.3969038 L41.1288769,51.3969038 L41.1288769,38.5377483 L45.4482194,38.5377483 L46.0953967,33.5256084 L41.1288769,33.5256084 L41.1288769,30.326197 C41.1288769,28.8752906 41.5325706,27.8866118 43.6143996,27.8866118 L46.2700893,27.8848027 L46.2700893,23.4027321 C45.8111818,23.3412224 44.2344226,23.2055391 42.4006028,23.2055391 C38.5718478,23.2055391 35.9505535,25.5411004 35.9505535,29.8295962 L35.9505535,33.5256084 L31.6203492,33.5256084 L31.6203492,38.5377483 L35.9505535,38.5377483 L35.9505535,51.3969038 L20.0354235,51.3969038 C19.0225684,51.3969038 18.2016037,50.5764723 18.2016037,49.5642752 L18.2016037,20.0224097 C18.2016037,19.0102125 19.0225684,18.189781 20.0354235,18.189781 L49.59649,18.189781 C50.609345,18.189781 51.4303098,19.0102125 51.4303098,20.0224097 L51.4303098,49.5642752" id="Facebook" fill="#699DB7"></path>
                        </g>
                    </g>
                </g>
            </g>
        </g>
    </g>
</svg>
